X:95
T:Earl Cathcart. GS.095
M:6/8
L:1/8
Q:3/8=120
S:George Spencer m/s, Leeds,1831
R:.Jig
O:England
A:Leeds
N:I think what is meant with the repeats is that the 1st bar is played
N:first time through, but after that the last bar replaced the first bar
N:$ = conventional
N:dal segno signâ€¦ + is , yes, a cross. The first bar line, shown here
N:as double with repeat marks, is single in the MS, but ABC2win wants it
N:double. It canâ€™t cope with ungrammatical music. DC is written below
N:the stave and the pause
N:is written over the double bar.
H:1831
Z:vmp.Cherri Graebe
K:G Major
â€œ+â€ DGB d2d |: â€œ$â€ dcB A2 c | BGd cAe | G3F2D |!
DGB d2d | dcB A2 c | cBA BAF | A3HG2 :|!
|: d | def g2g | gfe d2d |ecB Ace | G3F2A | GB^c def |!
B3 g2g | fed ^cde | dec def â€œ^DCâ€|| â€œ+â€ gdB GBâ€$â€d |]

